X:8065
T:Whiskey Before Breakfast
O:england
M:4/4
L:1/8
K:D
A,B,DE D2DE|FABF AFED|G2BG F2AF|EDEF EDB,G,|
A,B,DE D2DE|FABF AFED|G2BG F2AF|EDEF D4:|
|FGAc d2de|fedc BAAA|e2ef e2ef|gfed cABc|
d2fd c2ec|BABc BAFD|G2BG F2AF|EDEF D4:|


